X:966
T:Honeymoon, The
R:reel
H:Also played with doubled parts
Z:id:hn-reel-966
M:C|
L:1/8
K:G
BG~G2 DG~G2 | (3Bcd ef gedc | BG~G2 DG~G2 | BedB A2dc |
BG~G2 DG~G2 | (3Bcd ef ~g3a | bgaf gfed | (3efg dB A2Bd ||
~e3f edBA | (3Bcd ef gedc | BG~G2 DG~G2 | BedB A2Bd |
~e3f edBA | (3Bcd ef ~g3a | bgaf gfed | (3efg dB A2dc ||

